assets/svg/1F3A9.svg

<svg xmlns="http://www.w3.org/2000/svg" viewBox="0 0 64 64" enable-background="new 0 0 64 64"><g fill="#323232"><path d="m63.53 55.43v2.057l-2.048.963c0 0-.966-1.574-.942-1.992.028-.414.251-1.539.414-1.461.158.071 2.576.433 2.576.433"/><path d="m.86 55.15l-.032 2.5 1.392.281c0 0 .397-2.414.337-2.496-.059-.08-.651-.506-.651-.506l-1.046.221"/></g><ellipse fill="#577482" cx="32" cy="55.43" rx="31.534" ry="6.285"/><g fill="#3b525e"><ellipse cx="32" cy="57.49" rx="31.534" ry="6.285"/><path d="m8.374 9.3l1.516 46.1 45.21 1.06.92-47.16-26.52-.754z"/></g><path fill="#243438" d="m47.01 56.27c.336-.463.778-.848 1.326-1.1 1.85-.84 3.688-1.699 5.367-2.85.464-.316.971-.514 1.49-.619l.835-42.4-26.523-.754-5.729.203 19.337.551-.921 46.856 4.818.114"/><path fill="#7196a8" d="m21.259 11.239l-7.643.053 1.359 37.2 7.469.229z"/><path fill="#577482" d="m56.02 9.3c0 2.779-10.667 5.03-23.825 5.03s-23.824-2.247-23.824-5.03 10.666-5.03 23.824-5.03 23.825 2.248 23.825 5.03"/><g fill="#fbb03b"><path d="m55.34 53.32c0 2.301-10.181 4.166-22.735 4.166-12.558 0-22.735-1.865-22.735-4.166 0-2.307 10.177-4.172 22.735-4.172 12.554 0 22.735 1.866 22.735 4.172"/><path d="m9.498 43.514c0 0 18.984 7.721 45.845 0v9.807l-19.748 1.672-25.722-1.673-.375-9.806"/></g><path fill="#243438" d="m32.2 4.273c-3.299 0-6.443.143-9.304.398 12.765.686 20.09 9.09 20.11 9.109 7.726-.832 13.02-2.523 13.02-4.479 0-2.78-10.667-5.03-23.825-5.03"/></svg>

<?xml version="1.0" encoding="utf-8"?>
<!-- Generator: Adobe Illustrator 16.0.0, SVG Export Plug-In . SVG Version: 6.00 Build 0)  -->
<!DOCTYPE svg PUBLIC "-//W3C//DTD SVG 1.1//EN" "http://www.w3.org/Graphics/SVG/1.1/DTD/svg11.dtd">
<svg version="1.1" id="Layer_1" xmlns="http://www.w3.org/2000/svg" xmlns:xlink="http://www.w3.org/1999/xlink" x="0px" y="0px"
	 width="64px" height="64px" viewBox="0 0 64 64" enable-background="new 0 0 64 64" xml:space="preserve">
<g>
	<path fill="#323232" d="M63.534,55.43v2.057l-2.048,0.963c0,0-0.966-1.574-0.942-1.992c0.028-0.414,0.251-1.539,0.414-1.461
		C61.116,55.068,63.534,55.43,63.534,55.43z"/>
</g>
<g>
	<path fill="#323232" d="M0.86,55.145l-0.032,2.5l1.392,0.281c0,0,0.397-2.414,0.337-2.496c-0.059-0.08-0.651-0.506-0.651-0.506
		L0.86,55.145z"/>
</g>
<g>
	<g>
		<ellipse fill="#577482" cx="32" cy="55.43" rx="31.534" ry="6.285"/>
	</g>
	<g>
		<ellipse fill="#3B525E" cx="32" cy="57.486" rx="31.534" ry="6.285"/>
	</g>
	<g>
		<polygon fill="#3B525E" points="8.374,9.3 9.89,55.396 55.1,56.457 56.023,9.3 29.5,8.546 		"/>
	</g>
	<g>
		<path fill="#243438" d="M47.005,56.27c0.336-0.463,0.778-0.848,1.326-1.1c1.85-0.84,3.688-1.699,5.367-2.85
			c0.464-0.316,0.971-0.514,1.49-0.619L56.023,9.3L29.5,8.546l-5.729,0.203L43.108,9.3l-0.921,46.856L47.005,56.27z"/>
	</g>
	<g>
		<polygon fill="#7196A8" points="21.259,11.239 13.616,11.292 14.975,48.486 22.444,48.719 		"/>
	</g>
	<g>
		<path fill="#577482" d="M56.023,9.3c0,2.779-10.667,5.027-23.825,5.027S8.374,12.08,8.374,9.3S19.04,4.273,32.198,4.273
			S56.023,6.521,56.023,9.3z"/>
	</g>
	<g>
		<path fill="#FBB03B" d="M55.343,53.32c0,2.301-10.181,4.166-22.735,4.166c-12.558,0-22.735-1.865-22.735-4.166
			c0-2.307,10.177-4.172,22.735-4.172C45.162,49.148,55.343,51.014,55.343,53.32z"/>
	</g>
	<g>
		<path fill="#FBB03B" d="M9.498,43.514c0,0,18.984,7.721,45.845,0v9.807l-19.748,1.672L9.873,53.32L9.498,43.514z"/>
	</g>
	<g>
		<path fill="#243438" d="M32.198,4.273c-3.299,0-6.443,0.143-9.304,0.398c12.765,0.686,20.093,9.088,20.113,9.109
			c7.726-0.832,13.016-2.523,13.016-4.479C56.023,6.521,45.356,4.273,32.198,4.273z"/>
	</g>
</g>
</svg>
